svg/fluentui-system-icons/ic_fluent_people_48_filled.svg

<svg width="48" height="48" viewBox="0 0 48 48" fill="none" xmlns="http://www.w3.org/2000/svg">
<path d="M16 24C20.4183 24 24 20.4183 24 16C24 11.5817 20.4183 8 16 8C11.5817 8 8 11.5817 8 16C8 20.4183 11.5817 24 16 24ZM34 24C37.3137 24 40 21.3137 40 18C40 14.6863 37.3137 12 34 12C30.6863 12 28 14.6863 28 18C28 21.3137 30.6863 24 34 24ZM6.75 27C4.67893 27 3 28.6789 3 30.75V32C3 32 3 41 16 41C29 41 29 32 29 32V30.75C29 28.6789 27.3211 27 25.25 27H6.75ZM28.6738 38.0889C30.0503 38.6468 31.793 39 33.9992 39C44.4992 39 44.4992 31 44.4992 31V30.75C44.4992 28.6789 42.8202 27 40.7492 27H29.6074C30.4743 28.0068 30.9983 29.3172 30.9983 30.75L30.9983 32.0049L30.9983 32.01L30.9983 32.0208L30.9981 32.0447C30.9978 32.0617 30.9975 32.0807 30.997 32.1017C30.996 32.1437 30.9942 32.1936 30.9913 32.2511C30.9855 32.3659 30.9751 32.5112 30.9565 32.6829C30.9194 33.0252 30.8492 33.4788 30.7157 34.0071C30.4495 35.0608 29.921 36.4513 28.8695 37.8383C28.8058 37.9224 28.7406 38.0059 28.6738 38.0889Z" fill="#212121"/>
</svg>

<svg xmlns="http://www.w3.org/2000/svg" width="48" height="48"><path d="M16 24a8 8 0 1 0 0-16 8 8 0 0 0 0 16Zm18 0a6 6 0 1 0 0-12 6 6 0 0 0 0 12ZM6.75 27A3.75 3.75 0 0 0 3 30.75V32s0 9 13 9 13-9 13-9v-1.25A3.75 3.75 0 0 0 25.25 27H6.75Zm21.924 11.089c1.376.558 3.119.911 5.325.911 10.5 0 10.5-8 10.5-8v-.25A3.75 3.75 0 0 0 40.75 27H29.607a5.728 5.728 0 0 1 1.391 3.75v1.295l-.001.057a7.565 7.565 0 0 1-.04.581 9.697 9.697 0 0 1-.241 1.324 10.684 10.684 0 0 1-2.042 4.082Z"/></svg>
